X:1
T:O Mensch
T:J. S. Bach
T:O Mensch, bewein' dein' Sünde groß
T:©
T:©
Z:©
%%score [ ( 1 2 ) ( 3 4 ) ]
L:1/8
Q:1/4=60
M:none
K:Eb
V:1 treble nm="Soprano Alto"
V:2 treble 
V:3 bass nm="Tenor Bass"
V:4 bass 
V:1
 E2 |"^Instrument change" E2 F2 GF E2 |"^Instrument change" G2 =A2 B2 B2 | %3
w: O|man thy grie- * vous|sin be- moan for|
w: Of|vir- gin pure _ and|un- de- filed he|
w: |||
"^Instrument change" !courtesy!_A2 G2 F2 EF | %4
w: which Christ left his _|
w: here was born, our _|
w: |
"^Instrument change" G2"^Instrument change" =A2 B2 c2 |"^Instrument change" B2 A2 G2 A2 | %6
w: Fath- er's throne, from|high- est heav'n des-|
w: sav- iour mild for|sin to make a-|
w: ||
"^Instrument change" F4 E2 :|"^Instrument change" e2 | %8
w: cen- ding.||
w: tone- ment.||
w: |The|
"^Instrument change" e2"^Instrument change" e2 d2 B2 |"^Instrument change" c2 c2 G2 e2 | %10
w: ||
w: ||
w: dead he raised to|life a- gain, the|
"^Instrument change" e2"^Instrument change" e2 d2 B2 | %11
w: |
w: |
w: sick he freed from|
"^Instrument change" c2"^Instrument change" c2 B2 G_A | %12
w: |
w: |
w: grief and pain un- *|
"^Instrument change" B2"^Instrument change" c2 B2 G2 |"^Instrument change" A4 G2 F2 | %14
w: ||
w: ||
w: til the time ap-|point- ed that|
"^Instrument change" G2"^Instrument change" A2 B2 B2 |"^Instrument change" A2 G2 F2 B2 | %16
w: ||
w: ||
w: he for us should|give his blood, should|
"^Instrument change" c2"^Instrument change" d2 e2 d2 | %17
w: |
w: |
w: bear our sins' o'er-|
"^Instrument change" c2"^Instrument change" c2 B2 E2 | %18
w: |
w: |
w: whelm- ing load, the|
"^Instrument change" F2"^Instrument change" G2 A2 G2 |"^Instrument change" F4 E2 |] %20
w: ||
w: ||
w: shame- ful cross en-|dur- ing.|
V:2
 B,2 | C3 =B,/C/ D3 C/D/ | E3"^Instrument change" D D2 G2 | G"^Instrument change" F2 (E2 D) CD | %4
 E2 E2 D2 F2 | F"^Instrument change"E/D/ EB, B,E/D/ E2 | E"^Instrument change"D/C/ D2 B,2 :| %7
 B"^Instrument change"A | G2 F2 F2 E2 | E"^Instrument change"_D E2 E2 G2 | F2 F2 F2 F2 | %11
 G2 FE D2 EF | G2 A2 G2 G2 | G"^Instrument change"F/E/ FD E2 F2 | E2 E2 F2 G2 | %15
 C"^Instrument change"D E2 ED F2 | F2 F2 G=A B2 | B2 =A2 G2 E2 | D2 E2 FD B,E | %19
 E"^Instrument change"D/C/ D2 B,2 |] %20
V:3
 G,2 |"^Instrument change" A,2 A,2 G,2 G,2 | %2
"^Instrument change" CB,"^Instrument change" =A,2 G,2 D2 | %3
"^Instrument change" E"^Instrument change"B, B,2 CG, G,2 | %4
"^Instrument change" CB,"^Instrument change" C2 B,2 _A,2 | %5
"^Instrument change" (A,"^Instrument change" G,2) F, E,3 B, | %6
"^Instrument change" C"^Instrument change"A, F,B, G,2 :| %7
"^Instrument change" G,"^Instrument change"A, | %8
"^Instrument change" B,2"^Instrument change" C2 CB,/_A,/ G,2 |"^Instrument change" A,2 A,2 B,2 C2 | %10
"^Instrument change" C"^Instrument change"B, =A,2 B,A, B,2 | %11
"^Instrument change" B,=A,/G,/"^Instrument change" A,2 B,2 B,2 | %12
"^Instrument change" E2 E2 (E _D2) C | %13
"^Instrument change" C2"^Instrument change" !courtesy!=DF C2 A,2 | %14
"^Instrument change" B,2"^Instrument change" C2 =D2 =D,=E, | %15
"^Instrument change" F,2"^Instrument change" B,2 B,2 D2 | %16
"^Instrument change" C2"^Instrument change" B,2 B,C D2 | %17
"^Instrument change" G,2"^Instrument change" D2 D2 C2 |"^Instrument change" B,2 B,3 F, G,B, | %19
"^Instrument change" CA,"^Instrument change" F,B,/A,/ G,2 |] %20
V:4
 E,2 | A,G, F,2 =B,,2 C,2 | C,2 ^F,,2 G,,2 G,2 | C,D, E,2 =A,,=B,, C,2 | C,2 F,,2 B,,2 F,E, | %5
 D,B,, C,D, E,D, C,B,, | A,,F,, B,,2 E,,2 :| E,,F,, | G,,2 =A,,2 B,,C, _D,2 | %9
 C,"^Instrument change"B,, A,,2 E,2 C,B,, | =A,,G,, F,,2 B,,C, D,2 | C,2 F,2 B,,2 E,2 | %12
 E,"^Instrument change"_D, C,=D, E,2 =E,2 | F,2 =B,,2 C,2 _D,2 | _D,2 C,2 B,,A,, G,,2 | %15
 F,,2 G,,A,, B,,2 B,2 | =A,2 _A,2 G,3 F, | =E,2 ^F,2 G,2 _A,2 | %18
 A,"^Instrument change"G, F,E, D,B,, E,G,, | A,,2 B,,2 E,,2 |] %20

